X:18389
T:Walsh's hornpipe
S:Hester Meadowes
R:Hornpipe
O:Ireland
O:England
M:4/4
K:A
cB|\
(3ABc EF Ace2|(3def Bc def2|\
fe ce ae cA|(3Bcd cA BA F2|\
(3ABc EF Ace2|(3def Bc def2|\
fe ce ae cA|(3Bcd cB A2::\
g2|\
ae ce fe ce|ae ce fe cB|\
AB ce fe cA|(3Bcd cA BA F2|\
(3ABc EF Ace2|(3def Bc de f2|\
fe ce ae cA|(3Bcd cB A2:|


